X: 140
T: Hull's Victory
O: 1842
R: hornpipe, reel
B: Elias Howe's "Musician's Companion" 1842
Z: 1997 by John Chambers <jc:trillian.mit.edu>
B: NEFR #140
M: C|
L: 1/8
K: F
|:"F"fc fa fc fg | "C7"ag fe "F"f2 AB | "(C)"c2 cd c2 B2 | "C7"AB GA "F"F2 c2 |
| "F"fc fa fc fa | "C7"g2 g2 g2 ag | "G7"fe dc =Bc dB | "C"c2 e2 c2 "C7"c2 :|
|:"F"fe fg ag fe | "Bb"d2 B2 B2 ef | "G7"g^f ga ba g=f | "C7"e2 c2 c2 (3cde |
| "F"fc fa fc fa | "C7"gc gb gc gb | "F"ag fa "C7"gf eg | "F"f2a2 Hf2 "(C7)"c2 :|


